X:277
T:I Am Jesus' Little Lamb
%%stretchlast false
M:4/4
L:1/4
K:Bb clef=C1
"^I"[B,,D,B,F] "^I¹"[D,F,B,B] "^IV"[E,B,G] [E,,E,B,G] | "^I²"[F,,D,B,F] "^ii"[F,,C,B,E]/ "^V7"[F,,F,A,E]/ "^I"[B,,F,B,D]2 | [B,,F,DF] "^I¹"[D,B,FB] "^IV"[E,B,EG] "^i°7²"[=E,B,_DG] | "^I²"[F,B,DF] "^V7"[F,A,CE] "^I"[B,,B,D]2 | [B,,B,DF] "^I¹"[D,F,B,B] "^IV"[E,B,G] "^VI7²"[D,F,=B,G] | "^II"[C,=E,CG] "^II¹"[=E,G,Cc]/ "^II7¹"[=E,G,CB]/ "^V"[F,CA]/ "^vi7³"[F,B,G]/ "^V"[F,,F,A,F] | "^I"[B,,D,B,F] "^I¹"[D,F,B,B] "^IV"[E,B,G] "^VI7²"[D,F,=B,G] | "^II"[C,=E,CG] "^II¹"[=E,G,Cc]/ "^vii7²"[=E,G,CA]/ "^V"[F,CA]/ "^vi7³"[F,B,G]/ "^V"[F,,F,A,F] | "^I¹"[D,F,B,B] "^I"[B,,D,B,F] "^IV"[E,,E,B,G] "^I"[B,,D,B,F] | "^ii"[C,F,B,E]/ "^V7²"[C,F,A,E]/ "^I¹"[D,F,B,D]/ "^I"[E,F,B,D]/ "^V"[F,A,C]2 | "^I¹"[D,F,B,F] "^I"[B,,F,DB] "^IV"[E,EG] "^ii"[C,G,Ec] | "^I²"[F,DB] "^V"[F,,F,CA]/ "^V7"[F,,F,EA]/ "^I"[B,,F,DB]2 |]
